X:312
T:Road to Lisdoonvarna
Z: id:dc-reel-290
M:C
L:1/8
K:D Mixolydian
C|DAAG ABcA|GEE2cEGE|DAAG ABcA|BcAG FDD:|!
A|defd cAA2|BGG2 cAA2|defd cAAc|BcAG FDD:|!

